bots/clicksforms/seasonal/christmas.svg

<svg width="2048" height="2048" fill="none" xmlns="http://www.w3.org/2000/svg"><path fill="url(#a)" d="M0 0h2048v2048H0z"/><path d="m749 1024.46 140.219 140.22c23.882 23.88 62.603 23.88 86.485 0L1299.38 841" stroke="#fff" stroke-width="121.684" stroke-linecap="round" stroke-linejoin="round"/><path d="M1559.09 1382.52c-16.46 101.68-104.65 179.32-210.97 179.32H699.885c-106.325 0-194.517-77.64-210.972-179.32h125.575c13.627 33.79 46.727 57.64 85.397 57.64h648.235c38.67 0 71.76-23.85 85.39-57.64h125.58Z" fill="#fff"/><path d="M488.913 1382.52a215.16 215.16 0 0 1-2.755-34.4v-146.21h121.684v146.21c0 12.16 2.36 23.77 6.646 34.4H488.913Zm1072.927-180.61v146.21c0 11.71-.94 23.2-2.75 34.4h-125.58c4.29-10.63 6.65-22.24 6.65-34.4v-146.21h121.68Z" fill="#F27878"/><path d="M486.158 1201.91v-179.47h121.684v179.47H486.158Zm1075.682-179.47v179.47h-121.68v-179.47h121.68Z" fill="#fff"/><path d="M486.158 1022.44V844.086h121.684v178.354H486.158ZM1561.84 844.086v178.354h-121.68V844.086h121.68Z" fill="#F27878"/><path d="M489.247 663.478a215.074 215.074 0 0 0-3.089 36.407v144.2h121.684v-144.2c0-12.932 2.667-25.241 7.48-36.407H489.247Zm1069.503 0h-126.07c4.81 11.166 7.48 23.475 7.48 36.407v144.2h121.68v-144.2c0-12.411-1.06-24.575-3.09-36.407Z" fill="#fff"/><path d="M1558.75 663.479c-17.28-100.696-105.01-177.321-210.63-177.321H699.885c-105.627 0-193.357 76.625-210.638 177.321h126.076c14.108-32.728 46.66-55.637 84.562-55.637h648.235c37.9 0 70.45 22.909 84.56 55.637h126.07Z" fill="#F27878"/><defs><linearGradient id="a" x1="2048" y1="0" x2="0" y2="2048" gradientUnits="userSpaceOnUse"><stop stop-color="#65CC76"/><stop offset="1" stop-color="#68D49E"/></linearGradient></defs></svg>

<svg width="2048" height="2048" viewBox="0 0 2048 2048" fill="none" xmlns="http://www.w3.org/2000/svg">
<rect width="2048" height="2048" fill="#F27878"/>
<path d="M749 1024.46L889.219 1164.68C913.101 1188.56 951.822 1188.56 975.704 1164.68L1299.38 841" stroke="white" stroke-width="121.684" stroke-linecap="round" stroke-linejoin="round"/>
<path d="M1558.75 663.479C1541.47 562.783 1453.74 486.158 1348.12 486.158H699.884C594.257 486.158 506.527 562.783 489.246 663.479H615.322C629.43 630.751 661.982 607.842 699.884 607.842H1348.12C1386.02 607.842 1418.57 630.751 1432.68 663.479H1558.75Z" fill="#65CC76"/>
<path d="M489.246 663.479C487.216 675.31 486.158 687.474 486.158 699.885V844.086H607.842V699.885C607.842 686.953 610.509 674.644 615.322 663.479H489.246Z" fill="white"/>
<path d="M1558.75 663.479H1432.68C1437.49 674.644 1440.16 686.953 1440.16 699.885V844.086H1561.84V699.885C1561.84 687.474 1560.78 675.31 1558.75 663.479Z" fill="white"/>
<path d="M486.158 1022.44V844.086H607.842V1022.44H486.158Z" fill="#65CC76"/>
<path d="M1561.84 844.086V1022.44H1440.16V844.086H1561.84Z" fill="#65CC76"/>
<path d="M486.158 1201.91V1022.44H607.842V1201.91H486.158Z" fill="white"/>
<path d="M1561.84 1022.44V1201.91H1440.16V1022.44H1561.84Z" fill="white"/>
<path d="M488.913 1382.52C487.1 1371.32 486.158 1359.83 486.158 1348.12V1201.91H607.842V1348.12C607.842 1360.28 610.201 1371.89 614.488 1382.52H488.913Z" fill="#65CC76"/>
<path d="M1561.84 1201.91V1348.12C1561.84 1359.83 1560.9 1371.32 1559.09 1382.52H1433.51C1437.8 1371.89 1440.16 1360.28 1440.16 1348.12V1201.91H1561.84Z" fill="#65CC76"/>
<path d="M1559.09 1382.52C1542.63 1484.2 1454.44 1561.84 1348.12 1561.84H699.885C593.559 1561.84 505.368 1484.2 488.913 1382.52H614.488C628.115 1416.31 661.215 1440.16 699.885 1440.16H1348.12C1386.79 1440.16 1419.89 1416.31 1433.51 1382.52H1559.09Z" fill="white"/>
</svg>
